X: 2083
T: At The Height Of Boredom
R: reel
M: 4/4
K: Edorian
ED|:B,E (3EDE DAFA|B,EDB, EDB,A|Be (3efe fedB|edBA FEDE|
B,E (3EDE DAFA|B,EDB, EDB,A|Be (3efe fedB|1 edBA FEDE|2 AFDB, E4:|
|:FA|Beed efea|bafd edfd|A2FA DAFA|fedf edBA|
Beed eBea|bafd edBd|AF (3FEF dBAF|DEFD E2:|

